X: 1
T: THE BUTCHERS' MARCH -- JIG
B: Ryan's Mammoth Collection of Fiddle Tunes
R: jig
M: 6/8
L: 1/8
Z: Contributed 20010707125419 by John Chambers jmchambers:rcn.net
K: D
ug \
| fAA eAA | Td2B A2g | fAA eAA | Td2B G2g \
| fAA eAA | Td2B A2g | faa Tgfe | d2B G2 :|
|: uB \
| d3 TBAB | dBA A2B | d3 TBAB | dBG G2B \
| d3 TBAB | dBA A2g | faf gfe | dBG G2 :|
